austria/municipalities/41201.svg

<?xml version="1.0" encoding="UTF-8"?>
<!DOCTYPE svg PUBLIC "-//W3C//DTD SVG 1.1//EN" "http://www.w3.org/Graphics/SVG/1.1/DTD/svg11.dtd">
<svg xmlns="http://www.w3.org/2000/svg" version="1.1" width="100px" height="123px" style="shape-rendering:geometricPrecision; text-rendering:geometricPrecision; image-rendering:optimizeQuality; fill-rule:evenodd; clip-rule:evenodd" xmlns:xlink="http://www.w3.org/1999/xlink">
<g><path style="opacity:1" fill="#1c1e1c" d="M 97.5,1.5 C 98.6633,26.33 98.83,51.33 98,76.5C 90.2565,109.716 69.4232,123.716 35.5,118.5C 33.0404,117.109 30.3738,115.942 27.5,115C 25.9069,114.051 24.5736,112.885 23.5,111.5C 11.5392,104.672 4.37255,94.3391 2,80.5C 1.50003,54.1688 1.33336,27.8354 1.5,1.5C 33.5,1.5 65.5,1.5 97.5,1.5 Z"/></g>
<g><path style="opacity:1" fill="#f3c507" d="M 89.5,95.5 C 89.6993,91.5751 90.6993,87.9085 92.5,84.5C 92.4061,82.3115 91.7394,80.3115 90.5,78.5C 92.5854,76.9179 94.0854,74.9179 95,72.5C 95.5,50.5025 95.6666,28.5025 95.5,6.5C 92.6146,6.1936 89.9479,6.52693 87.5,7.5C 87.4427,12.6817 86.776,12.6817 85.5,7.5C 84.1804,9.27011 82.6804,9.60344 81,8.5C 78.1737,10.3398 75.0071,11.0065 71.5,10.5C 71.5,13.1667 71.5,15.8333 71.5,18.5C 68.8333,18.5 66.1667,18.5 63.5,18.5C 63.5,20.1667 63.5,21.8333 63.5,23.5C 62.5,23.5 61.5,23.5 60.5,23.5C 60.5,20.8333 60.5,18.1667 60.5,15.5C 59.5,15.5 58.5,15.5 57.5,15.5C 57.8134,12.7531 57.48,10.0865 56.5,7.5C 55.7022,9.07774 55.2022,10.7444 55,12.5C 54.3581,10.2381 53.5248,8.07148 52.5,6C 49.9814,5.25906 48.3148,6.09239 47.5,8.5C 47.8076,10.924 47.4742,13.2573 46.5,15.5C 45.1936,16.9122 44.3603,18.5789 44,20.5C 42.4986,30.2539 43.6652,39.5872 47.5,48.5C 47.6664,56.84 47.4997,65.1733 47,73.5C 46.0053,74.0659 45.172,74.7326 44.5,75.5C 41.796,75.6696 40.1293,77.0029 39.5,79.5C 37.8207,80.9163 36.1541,82.2497 34.5,83.5C 33.2965,81.3655 31.4632,80.0322 29,79.5C 28.6635,70.1109 27.8302,60.7776 26.5,51.5C 27.846,41.8983 26.6793,32.565 23,23.5C 19.6976,19.1907 16.3643,14.8574 13,10.5C 13.1433,13.1626 13.6433,15.8292 14.5,18.5C 13.5353,22.8093 13.3687,27.1426 14,31.5C 15.3326,36.8283 16.6659,42.1617 18,47.5C 19.161,50.1848 20.9944,52.1848 23.5,53.5C 23.9853,62.3978 24.6519,71.2311 25.5,80C 21.3024,81.9051 18.6357,85.0718 17.5,89.5C 17.3456,95.6472 17.8456,101.647 19,107.5C 11.4138,100.328 6.41384,91.6613 4,81.5C 3.50003,55.5021 3.33336,29.5021 3.5,3.5C 34.5,3.5 65.5,3.5 96.5,3.5C 96.6666,27.5023 96.5,51.5023 96,75.5C 95.7079,82.8743 93.5413,89.541 89.5,95.5 Z"/></g>
<g><path style="opacity:1" fill="#f1c40d" d="M 87.5,7.5 C 89.369,9.63528 90.0356,12.3019 89.5,15.5C 87.8333,15.5 86.1667,15.5 84.5,15.5C 85.1335,23.9032 84.4668,31.9032 82.5,39.5C 83.6215,32.3162 83.6215,25.1495 82.5,18C 83.6542,15.5631 84.1542,13.0631 84,10.5C 81.7399,15.3561 78.7399,19.6895 75,23.5C 72.6715,30.3081 71.1715,37.3081 70.5,44.5C 70.7008,47.9877 71.3675,51.321 72.5,54.5C 71.5233,57.2869 71.19,60.2869 71.5,63.5C 70.7333,69.3002 69.4,74.9669 67.5,80.5C 65.629,80.8588 64.129,81.8588 63,83.5C 61.0212,78.0105 57.1879,75.0105 51.5,74.5C 51.5,65.5 51.5,56.5 51.5,47.5C 52.6005,45.7226 53.4338,43.7226 54,41.5C 54.6667,33.8333 54.6667,26.1667 54,18.5C 53.5848,16.7091 52.5848,15.3757 51,14.5C 50.6667,12.5 50.3333,10.5 50,8.5C 49.2303,7.40191 48.397,7.40191 47.5,8.5C 48.3148,6.09239 49.9814,5.25906 52.5,6C 53.5248,8.07148 54.3581,10.2381 55,12.5C 55.2022,10.7444 55.7022,9.07774 56.5,7.5C 57.48,10.0865 57.8134,12.7531 57.5,15.5C 58.5,15.5 59.5,15.5 60.5,15.5C 60.5,18.1667 60.5,20.8333 60.5,23.5C 61.5,23.5 62.5,23.5 63.5,23.5C 63.5,21.8333 63.5,20.1667 63.5,18.5C 66.1667,18.5 68.8333,18.5 71.5,18.5C 71.5,15.8333 71.5,13.1667 71.5,10.5C 75.0071,11.0065 78.1737,10.3398 81,8.5C 82.6804,9.60344 84.1804,9.27011 85.5,7.5C 86.776,12.6817 87.4427,12.6817 87.5,7.5 Z"/></g>
<g><path style="opacity:1" fill="#f4c606" d="M 87.5,7.5 C 89.9479,6.52693 92.6146,6.1936 95.5,6.5C 95.6666,28.5025 95.5,50.5025 95,72.5C 94.0854,74.9179 92.5854,76.9179 90.5,78.5C 91.7394,80.3115 92.4061,82.3115 92.5,84.5C 90.6993,87.9085 89.6993,91.5751 89.5,95.5C 86.8819,99.2907 84.0486,102.957 81,106.5C 81.288,102.537 81.788,98.5366 82.5,94.5C 82.1936,91.4682 81.6936,88.4682 81,85.5C 80.6174,84.944 80.1174,84.6107 79.5,84.5C 78.8789,81.8787 77.2123,80.212 74.5,79.5C 73.52,76.9135 73.1866,74.2469 73.5,71.5C 74.4861,67.03 74.8195,62.3633 74.5,57.5C 75.3091,55.7078 75.8091,53.7078 76,51.5C 78.6473,47.6919 80.814,43.6919 82.5,39.5C 84.4668,31.9032 85.1335,23.9032 84.5,15.5C 86.1667,15.5 87.8333,15.5 89.5,15.5C 90.0356,12.3019 89.369,9.63528 87.5,7.5 Z"/></g>
<g><path style="opacity:1" fill="#fbfbfa" d="M 97.5,-0.5 C 98.1667,-0.5 98.8333,-0.5 99.5,-0.5C 99.5,40.5 99.5,81.5 99.5,122.5C 79.5,122.5 59.5,122.5 39.5,122.5C 38.3748,121 37.0414,119.667 35.5,118.5C 69.4232,123.716 90.2565,109.716 98,76.5C 98.83,51.33 98.6633,26.33 97.5,1.5C 97.5,0.833333 97.5,0.166667 97.5,-0.5 Z"/></g>
<g><path style="opacity:1" fill="#0d0b0c" d="M 26.5,51.5 C 24.8212,51.2852 23.8212,51.9519 23.5,53.5C 20.9944,52.1848 19.161,50.1848 18,47.5C 16.6659,42.1617 15.3326,36.8283 14,31.5C 13.3687,27.1426 13.5353,22.8093 14.5,18.5C 13.6433,15.8292 13.1433,13.1626 13,10.5C 16.3643,14.8574 19.6976,19.1907 23,23.5C 26.6793,32.565 27.846,41.8983 26.5,51.5 Z"/></g>
<g><path style="opacity:1" fill="#090909" d="M 82.5,39.5 C 80.814,43.6919 78.6473,47.6919 76,51.5C 75.8091,53.7078 75.3091,55.7078 74.5,57.5C 74.6621,55.4727 74.4955,53.4727 74,51.5C 73.9174,53.5064 73.4174,54.5064 72.5,54.5C 71.3675,51.321 70.7008,47.9877 70.5,44.5C 71.1715,37.3081 72.6715,30.3081 75,23.5C 78.7399,19.6895 81.7399,15.3561 84,10.5C 84.1542,13.0631 83.6542,15.5631 82.5,18C 83.6215,25.1495 83.6215,32.3162 82.5,39.5 Z"/></g>
<g><path style="opacity:1" fill="#08060a" d="M 51.5,47.5 C 51.1667,47.5 50.8333,47.5 50.5,47.5C 49.5084,47.3284 48.8417,47.6618 48.5,48.5C 48.1667,48.5 47.8333,48.5 47.5,48.5C 43.6652,39.5872 42.4986,30.2539 44,20.5C 44.3603,18.5789 45.1936,16.9122 46.5,15.5C 47.4742,13.2573 47.8076,10.924 47.5,8.5C 48.397,7.40191 49.2303,7.40191 50,8.5C 50.3333,10.5 50.6667,12.5 51,14.5C 52.5848,15.3757 53.5848,16.7091 54,18.5C 54.6667,26.1667 54.6667,33.8333 54,41.5C 53.4338,43.7226 52.6005,45.7226 51.5,47.5 Z"/></g>
<g><path style="opacity:1" fill="#2b5344" d="M 74.5,57.5 C 74.8195,62.3633 74.4861,67.03 73.5,71.5C 73.6567,70.1266 73.49,68.7932 73,67.5C 72.6667,71.5 72.3333,75.5 72,79.5C 71.5006,74.1771 71.334,68.8437 71.5,63.5C 71.19,60.2869 71.5233,57.2869 72.5,54.5C 73.4174,54.5064 73.9174,53.5064 74,51.5C 74.4955,53.4727 74.6621,55.4727 74.5,57.5 Z"/></g>
<g><path style="opacity:1" fill="#075444" d="M 50.5,47.5 C 50.8314,56.1922 50.498,64.8589 49.5,73.5C 48.5021,65.1932 48.1688,56.8599 48.5,48.5C 48.8417,47.6618 49.5084,47.3284 50.5,47.5 Z"/></g>
<g><path style="opacity:1" fill="#252c27" d="M 50.5,47.5 C 50.8333,47.5 51.1667,47.5 51.5,47.5C 51.5,56.5 51.5,65.5 51.5,74.5C 57.1879,75.0105 61.0212,78.0105 63,83.5C 64.129,81.8588 65.629,80.8588 67.5,80.5C 66.1879,82.4788 64.5212,84.1455 62.5,85.5C 59.4534,76.9745 53.4534,73.6412 44.5,75.5C 45.172,74.7326 46.0053,74.0659 47,73.5C 47.4997,65.1733 47.6664,56.84 47.5,48.5C 47.8333,48.5 48.1667,48.5 48.5,48.5C 48.1688,56.8599 48.5021,65.1932 49.5,73.5C 50.498,64.8589 50.8314,56.1922 50.5,47.5 Z"/></g>
<g><path style="opacity:1" fill="#141713" d="M 71.5,63.5 C 71.334,68.8437 71.5006,74.1771 72,79.5C 72.3333,75.5 72.6667,71.5 73,67.5C 73.49,68.7932 73.6567,70.1266 73.5,71.5C 73.1866,74.2469 73.52,76.9135 74.5,79.5C 77.2123,80.212 78.8789,81.8787 79.5,84.5C 76.2709,81.0751 72.2709,79.7418 67.5,80.5C 69.4,74.9669 70.7333,69.3002 71.5,63.5 Z"/></g>
<g><path style="opacity:1" fill="#037745" d="M 44.5,75.5 C 53.4534,73.6412 59.4534,76.9745 62.5,85.5C 64.5212,84.1455 66.1879,82.4788 67.5,80.5C 72.2709,79.7418 76.2709,81.0751 79.5,84.5C 80.7955,92.1751 80.6288,99.8417 79,107.5C 65.7834,118.122 50.9501,120.956 34.5,116C 30.9639,114.209 27.2973,112.709 23.5,111.5C 20.6777,107.811 19.3444,103.477 19.5,98.5C 19.3345,94.4862 19.5012,90.4862 20,86.5C 23.9332,81.1417 28.7665,80.1417 34.5,83.5C 34.811,84.4778 35.4777,85.1445 36.5,85.5C 38.0383,83.7567 39.0383,81.7567 39.5,79.5C 40.1293,77.0029 41.796,75.6696 44.5,75.5 Z"/></g>
<g><path style="opacity:1" fill="#161f1c" d="M 39.5,79.5 C 39.0383,81.7567 38.0383,83.7567 36.5,85.5C 35.4777,85.1445 34.811,84.4778 34.5,83.5C 36.1541,82.2497 37.8207,80.9163 39.5,79.5 Z"/></g>
<g><path style="opacity:1" fill="#1f322b" d="M 26.5,51.5 C 27.8302,60.7776 28.6635,70.1109 29,79.5C 31.4632,80.0322 33.2965,81.3655 34.5,83.5C 28.7665,80.1417 23.9332,81.1417 20,86.5C 19.5012,90.4862 19.3345,94.4862 19.5,98.5C 18.8333,95.5 18.1667,92.5 17.5,89.5C 18.6357,85.0718 21.3024,81.9051 25.5,80C 24.6519,71.2311 23.9853,62.3978 23.5,53.5C 23.8212,51.9519 24.8212,51.2852 26.5,51.5 Z"/></g>
<g><path style="opacity:1" fill="#f6f7f7" d="M -0.5,-0.5 C 32.1667,-0.5 64.8333,-0.5 97.5,-0.5C 97.5,0.166667 97.5,0.833333 97.5,1.5C 65.5,1.5 33.5,1.5 1.5,1.5C 1.33336,27.8354 1.50003,54.1688 2,80.5C 4.37255,94.3391 11.5392,104.672 23.5,111.5C 24.5736,112.885 25.9069,114.051 27.5,115C 30.3738,115.942 33.0404,117.109 35.5,118.5C 37.0414,119.667 38.3748,121 39.5,122.5C 26.1667,122.5 12.8333,122.5 -0.5,122.5C -0.5,81.5 -0.5,40.5 -0.5,-0.5 Z"/></g>
</svg>

<svg xmlns="http://www.w3.org/2000/svg" width="100" height="123" style="shape-rendering:geometricPrecision;text-rendering:geometricPrecision;image-rendering:optimizeQuality;fill-rule:evenodd;clip-rule:evenodd"><path style="opacity:1" fill="#1c1e1c" d="M97.5 1.5a940.01 940.01 0 0 1 .5 75c-7.743 33.216-28.577 47.216-62.5 42-2.46-1.391-5.126-2.558-8-3.5-1.593-.949-2.926-2.115-4-3.5-11.96-6.828-19.127-17.16-21.5-31-.5-26.331-.667-52.665-.5-79h96z"/><path style="opacity:1" fill="#f3c507" d="M89.5 95.5c.2-3.925 1.2-7.591 3-11a11.283 11.283 0 0 0-2-6c2.085-1.582 3.585-3.582 4.5-6 .5-21.998.667-43.998.5-66-2.885-.306-5.552.027-8 1-.057 5.182-.724 5.182-2 0-1.32 1.77-2.82 2.103-4.5 1-2.826 1.84-5.993 2.507-9.5 2v8h-8v5h-3v-8h-3a16.869 16.869 0 0 0-1-8 14.73 14.73 0 0 0-1.5 5A38.053 38.053 0 0 0 52.5 6c-2.519-.74-4.185.092-5 2.5a13.117 13.117 0 0 1-1 7c-1.306 1.412-2.14 3.079-2.5 5-1.501 9.754-.335 19.087 3.5 28 .166 8.34 0 16.673-.5 25-.995.566-1.828 1.233-2.5 2-2.704.17-4.37 1.503-5 4a120.004 120.004 0 0 1-5 4c-1.203-2.135-3.037-3.468-5.5-4a263.689 263.689 0 0 0-2.5-28c1.346-9.602.18-18.935-3.5-28-3.302-4.31-6.636-8.643-10-13 .143 2.663.643 5.33 1.5 8a35.633 35.633 0 0 0-.5 13l4 16c1.161 2.685 2.994 4.685 5.5 6a633.805 633.805 0 0 0 2 26.5c-4.198 1.905-6.864 5.072-8 9.5-.154 6.147.346 12.147 1.5 18-7.586-7.172-12.586-15.839-15-26-.5-25.998-.667-51.998-.5-78h93c.167 24.002 0 48.002-.5 72-.292 7.374-2.459 14.041-6.5 20z"/><path style="opacity:1" fill="#f1c40d" d="M87.5 7.5c1.869 2.135 2.536 4.802 2 8h-5c.633 8.403-.033 16.403-2 24a69.116 69.116 0 0 0 0-21.5c1.154-2.437 1.654-4.937 1.5-7.5a46.333 46.333 0 0 1-9 13 90.726 90.726 0 0 0-4.5 21c.2 3.488.868 6.821 2 10-.977 2.787-1.31 5.787-1 9a87.535 87.535 0 0 1-4 17c-1.871.359-3.371 1.359-4.5 3-1.979-5.49-5.812-8.49-11.5-9v-27c1.1-1.777 1.934-3.777 2.5-6 .667-7.667.667-15.333 0-23-.415-1.79-1.415-3.124-3-4l-1-6c-.77-1.098-1.603-1.098-2.5 0 .815-2.408 2.481-3.24 5-2.5a38.053 38.053 0 0 1 2.5 6.5 14.73 14.73 0 0 1 1.5-5 16.869 16.869 0 0 1 1 8h3v8h3v-5h8v-8c3.507.507 6.674-.16 9.5-2 1.68 1.103 3.18.77 4.5-1 1.276 5.182 1.943 5.182 2 0z"/><path style="opacity:1" fill="#f4c606" d="M87.5 7.5c2.448-.973 5.115-1.306 8-1 .167 22.003 0 44.002-.5 66-.915 2.418-2.415 4.418-4.5 6a11.283 11.283 0 0 1 2 6c-1.8 3.409-2.8 7.075-3 11a130.991 130.991 0 0 1-8.5 11c.288-3.963.788-7.963 1.5-12a70.794 70.794 0 0 0-1.5-9c-.383-.556-.883-.89-1.5-1-.621-2.621-2.288-4.288-5-5a16.869 16.869 0 0 1-1-8c.986-4.47 1.32-9.137 1-14 .81-1.792 1.31-3.792 1.5-6a60.579 60.579 0 0 0 6.5-12c1.967-7.597 2.633-15.597 2-24h5c.536-3.198-.131-5.865-2-8z"/><path style="opacity:1" fill="#fbfbfa" d="M97.5-.5h2v123h-60a20.233 20.233 0 0 0-4-4c33.923 5.216 54.757-8.784 62.5-42 .83-25.17.663-50.17-.5-75v-2z"/><path style="opacity:1" fill="#0d0b0c" d="M26.5 51.5c-1.679-.215-2.679.452-3 2-2.506-1.315-4.339-3.315-5.5-6l-4-16a35.633 35.633 0 0 1 .5-13c-.857-2.67-1.357-5.337-1.5-8 3.364 4.357 6.698 8.69 10 13 3.68 9.065 4.846 18.398 3.5 28z"/><path style="opacity:1" fill="#090909" d="M82.5 39.5a60.579 60.579 0 0 1-6.5 12c-.19 2.208-.69 4.208-1.5 6a18.436 18.436 0 0 0-.5-6c-.083 2.006-.583 3.006-1.5 3-1.132-3.179-1.8-6.512-2-10a90.726 90.726 0 0 1 4.5-21 46.333 46.333 0 0 0 9-13c.154 2.563-.346 5.063-1.5 7.5a69.116 69.116 0 0 1 0 21.5z"/><path style="opacity:1" fill="#08060a" d="M51.5 47.5h-1c-.992-.172-1.658.162-2 1h-1c-3.835-8.913-5.001-18.246-3.5-28 .36-1.921 1.194-3.588 2.5-5a13.117 13.117 0 0 0 1-7c.897-1.098 1.73-1.098 2.5 0l1 6c1.585.876 2.585 2.21 3 4 .667 7.667.667 15.333 0 23-.566 2.223-1.4 4.223-2.5 6z"/><path style="opacity:1" fill="#2b5344" d="M74.5 57.5c.32 4.863-.014 9.53-1 14a8.434 8.434 0 0 0-.5-4l-1 12c-.5-5.323-.666-10.656-.5-16-.31-3.213.023-6.213 1-9 .917.006 1.417-.994 1.5-3 .496 1.973.662 3.973.5 6z"/><path style="opacity:1" fill="#075444" d="M50.5 47.5a169.875 169.875 0 0 1-1 26 157.123 157.123 0 0 1-1-25c.342-.838 1.008-1.172 2-1z"/><path style="opacity:1" fill="#252c27" d="M50.5 47.5h1v27c5.688.51 9.521 3.51 11.5 9 1.129-1.641 2.629-2.641 4.5-3a17.853 17.853 0 0 1-5 5c-3.047-8.525-9.047-11.859-18-10 .672-.767 1.505-1.434 2.5-2 .5-8.327.666-16.66.5-25h1c-.331 8.36.002 16.693 1 25a169.875 169.875 0 0 0 1-26z"/><path style="opacity:1" fill="#141713" d="M71.5 63.5c-.166 5.344 0 10.677.5 16l1-12a8.434 8.434 0 0 1 .5 4 16.869 16.869 0 0 0 1 8c2.712.712 4.379 2.379 5 5-3.23-3.425-7.23-4.758-12-4a87.535 87.535 0 0 0 4-17z"/><path style="opacity:1" fill="#037745" d="M44.5 75.5c8.953-1.859 14.953 1.475 18 10a17.853 17.853 0 0 0 5-5c4.77-.758 8.77.575 12 4 1.296 7.675 1.129 15.342-.5 23-13.217 10.622-28.05 13.456-44.5 8.5a73.968 73.968 0 0 0-11-4.5c-2.822-3.689-4.156-8.023-4-13a72.444 72.444 0 0 1 .5-12c3.933-5.358 8.767-6.358 14.5-3 .311.978.978 1.644 2 2a12.802 12.802 0 0 0 3-6c.63-2.497 2.296-3.83 5-4z"/><path style="opacity:1" fill="#161f1c" d="M39.5 79.5a12.802 12.802 0 0 1-3 6c-1.022-.356-1.689-1.022-2-2 1.654-1.25 3.32-2.584 5-4z"/><path style="opacity:1" fill="#1f322b" d="M26.5 51.5a263.689 263.689 0 0 1 2.5 28c2.463.532 4.297 1.865 5.5 4-5.733-3.358-10.567-2.358-14.5 3a72.444 72.444 0 0 0-.5 12l-2-9c1.136-4.428 3.802-7.595 8-9.5a633.805 633.805 0 0 1-2-26.5c.321-1.548 1.321-2.215 3-2z"/><path style="opacity:1" fill="#f6f7f7" d="M-.5-.5h98v2h-96c-.167 26.335 0 52.669.5 79 2.373 13.84 9.54 24.172 21.5 31 1.074 1.385 2.407 2.551 4 3.5 2.874.942 5.54 2.109 8 3.5a20.233 20.233 0 0 1 4 4h-40V-.5z"/></svg>
